X:1
T:Life, We Hail Thee
T:Life, We Hail Thee
T:Edmund Simon Lorenz
T:Bell Case Harrington, 1909
T:Public Domain Courtesy of the Cyber Hymnal™
T:Public Domain Courtesy of the Cyber Hymnal™
C:Edmund Simon Lorenz
Z:Public Domain
Z:Courtesy of the Cyber Hymnal™
%%score ( 1 2 ) ( 3 4 )
L:1/8
Q:1/4=85
M:4/4
K:Bb
V:1 treble 
V:2 treble 
V:3 bass 
V:4 bass 
V:1
 [DB]2 [B,D]>[CE] [DF][EG][EA][DB] | [Ge]2 [Fd]2 [Gd]2 [Gc]2 | %2
w: 1.~Hark! from the fields tri- umph- ant|life is spring- ing,|
w: 2.~Na- ture a- wakes from win- ter’s|stern do- min- ion,|
w: 3.~Our souls look up from er- ror’s|doubts ap- pall- ing,|
 [^Fd]2 [FA]>[Ac] ([GB][DA][GB])[GA] | [=Ec]>[EB] [EA][EG] [_EG]2 [EF]2 | %4
w: Forth from the earth * * as-|cen- sion bells are ring- ing;|
w: Up- ward faith soars * * on|air- y, buoy- ant pin- ion;|
w: Forth to the skies * * where|faith and hope are call- ing;|
 [EF][EF][EG][EA] [Dc]>[DB] [DB]2 | [EA][EA][DB][Ec] [Ge]>[Fd] [Fd]2 | %6
w: There’s no room for pain and grief,|Eas- ter time brings sweet re- lief,|
w: Earth hath time for naught but joy,|Rap- ture sweet, with- out al- loy,|
w: All our fears are past and gone;|Light of life, shine free- ly on;|
 [^Fd][Fd][Fc][Ad] [Ac]>[GB] (BG) | [CF] z [C=E] z [CF]2 z2 || %8
w: Life now push- es bud and leaf, *|Life, life life!|
w: Men their high- est praise em- ploy, *|Life, life, life!|
w: Hail the re- sur- rect- ion dawn, *|Life, life, life!|
"^Refrain" [Ec]2 [D=B]2 [Ec]2 z [EF] | [EG][EA][DB][Fc] [Fd]2 [DB]2 | [Ec]2 [D=B]2 [Ec]2 z [EF] | %11
w: |||
w: Life, life, life, ex-|ult- ant life, we meet thee;|Life, life, life, tri-|
w: |||
 [EG][EA][DB][Fc] [Fd]2 [DB]2 | [Ee]2 [Ee]>[Ee] [EB]3 [Ec] | [Fd]2 [Fd]>[Fd] F3 [D^F] | %14
w: |||
w: umph- ant life, we greet thee;|No more the tomb af-|frights with its gloom, For|
w: |||
 [EG][FA][GB][Gc] [DF]2 [Ec]2 | [DB]6 z2 |] %16
w: ||
w: death hath giv- en place to|life.|
w: ||
V:2
 x8 | x8 | x8 | x8 | x8 | x8 | x6 D2 | x8 || x8 | x8 | x8 | x8 | x8 | x4 (^F2 D) x | x8 | x8 |] %16
V:3
 [B,,F,]2 [B,,F,]>[B,,F,] [B,,B,][B,,B,][B,,F,][B,,F,] | B,2 B,2 [E,B,]2 [E,G,]2 | %2
 [D,A,]2 [D,D]>[D,D] D3 [G,B,] | [C,G,]>[C,G,] [C,C][C,B,] [F,B,]2 [F,A,]2 | %4
 [F,A,][F,A,][F,B,][F,C] [F,B,]>[F,B,] [F,B,]2 | [F,C][F,C][F,B,][F,A,] B,>B, B,2 | %6
 [A,D][A,D][A,D][^F,D] [G,D]>[G,D] [B,,B,]2 | [C,A,] z [C,G,] z [F,A,]2 z2 || %8
 [F,A,]2 [F,^G,]2 [F,A,]2 z [F,A,] | [F,B,][F,C][F,B,][F,A,] B,2 B,2 | %10
 [F,A,]2 [F,^G,]2 [F,A,]2 z [F,A,] | [F,B,][F,C][F,B,][F,A,] B,2 B,2 | %12
 [G,B,]2 [G,B,]>[G,B,] [_G,B,]2 [G,B,]2 | [F,B,]2 [F,B,]>[F,B,] [D,B,]2 [B,,B,]2 | %14
 [E,B,][E,B,][E,B,][E,B,] [F,B,]2 [F,A,]2 | [B,,F,]6 z2 |] %16
V:4
 x8 | B,2 B,2 x4 | x4 (G,^F,G,) x | x8 | x8 | x4 B,>B, B,2 | x8 | x8 || x8 | x4 B,2 B,2 | x8 | %11
 x4 B,2 B,2 | x8 | x8 | x8 | x8 |] %16

